packages/tokens/icons/saml/size24Px.svg

<svg viewBox="0 0 24 24" fill="none" xmlns="http://www.w3.org/2000/svg" width="1em" height="1em"><path d="M21.0396 16.8204C21.0396 16.6839 20.9837 16.5533 20.885 16.459L20.5396 16.8204L20.885 16.4589L20.8848 16.4588L20.8842 16.4582L20.8817 16.4558L20.8719 16.4464L20.8333 16.4095L20.6847 16.2673C20.5556 16.1438 20.3686 15.9648 20.1373 15.743C19.6746 15.2995 19.0346 14.6851 18.325 14.0016C16.9052 12.6339 15.2099 10.9922 14.1005 9.88896C13.7641 9.5545 13.7669 9.14419 13.7887 8.68971C13.7907 8.64743 13.7915 8.60621 13.792 8.57479C13.7921 8.57003 13.7922 8.56549 13.7923 8.5612C13.793 8.52445 13.7937 8.50381 13.795 8.48835C13.9472 6.59712 13.4661 4.87719 12.4308 3.62166C11.39 2.35944 9.82273 1.60889 7.89842 1.60889C4.26468 1.60889 2.03955 4.62862 2.03955 7.30545C2.03955 8.57929 2.30866 10.2161 3.29193 11.5268C4.29633 12.8657 5.98645 13.7856 8.65053 13.7079C8.77667 13.7077 8.90621 13.7017 9.02591 13.6962L9.03162 13.696C9.15845 13.6901 9.29031 13.6764 9.40706 13.6643C9.42698 13.6622 9.44647 13.6602 9.46542 13.6583C9.60319 13.6442 9.72364 13.6337 9.83764 13.633C10.0624 13.6318 10.2131 13.6698 10.3336 13.7597C10.3333 13.7595 10.338 13.763 10.3492 13.7725C10.3598 13.7814 10.3735 13.7932 10.3906 13.8084C10.4249 13.8389 10.4684 13.8787 10.5207 13.9276C10.6254 14.0253 10.7585 14.1526 10.9122 14.3002C10.9682 14.3539 11.0267 14.4102 11.0873 14.4686C11.358 14.7289 11.6706 15.0296 11.9801 15.3202L12.3224 14.9557L11.9801 15.3202C12.1621 15.491 12.3884 15.5252 12.5663 15.5157C12.7417 15.5064 12.9255 15.4535 13.1075 15.3818C13.2263 15.335 13.3027 15.3168 13.3501 15.3119C13.3479 15.3223 13.3451 15.3339 13.3418 15.3466C13.3296 15.3927 13.311 15.4472 13.2852 15.5103C13.2103 15.6933 13.1409 15.9141 13.1297 16.1381C13.1184 16.3652 13.1665 16.6587 13.4036 16.8838L13.4069 16.8869C13.5052 16.9803 13.7076 17.1726 14.0327 17.2213C14.3542 17.2695 14.6911 17.1654 15.0566 16.9542C15.0597 16.9523 15.0628 16.9506 15.0658 16.9489C15.0565 16.9769 15.0442 17.0091 15.0283 17.0459C14.999 17.1135 14.9652 17.1778 14.926 17.2504C14.9221 17.2576 14.9181 17.265 14.9139 17.2727C14.8802 17.3349 14.8372 17.4143 14.8034 17.4909C14.7651 17.5781 14.7185 17.7045 14.7136 17.8531C14.7081 18.0178 14.7545 18.179 14.8561 18.3218C14.9194 18.4108 15.0953 18.5999 15.2741 18.7892C15.4698 18.9962 15.7153 19.251 15.9549 19.4979C16.1947 19.7451 16.4296 19.9855 16.6045 20.164L16.8152 20.3788L16.874 20.4385L16.8895 20.4543L16.8935 20.4583L16.8945 20.4594L16.8948 20.4596L16.8948 20.4597L17.2511 20.1089L16.8948 20.4597C16.9888 20.5552 17.1172 20.6089 17.2511 20.6089H17.2512H17.2513H17.2515H17.2518H17.2521H17.2524H17.2529H17.2533H17.2539H17.2544H17.2551H17.2557H17.2565H17.2573H17.2581H17.259H17.26H17.261H17.262H17.2631H17.2643H17.2655H17.2667H17.268H17.2694H17.2708H17.2723H17.2738H17.2753H17.2769H17.2786H17.2803H17.2821H17.2839H17.2857H17.2876H17.2896H17.2916H17.2936H17.2957H17.2978H17.3H17.3023H17.3045H17.3069H17.3092H17.3117H17.3141H17.3166H17.3192H17.3218H17.3245H17.3271H17.3299H17.3327H17.3355H17.3384H17.3413H17.3442H17.3472H17.3503H17.3533H17.3565H17.3596H17.3629H17.3661H17.3694H17.3727H17.3761H17.3795H17.383H17.3865H17.39H17.3936H17.3972H17.4009H17.4046H17.4084H17.4121H17.416H17.4198H17.4237H17.4276H17.4316H17.4356H17.4397H17.4438H17.4479H17.452H17.4562H17.4605H17.4648H17.4691H17.4734H17.4778H17.4822H17.4866H17.4911H17.4957H17.5002H17.5048H17.5094H17.5141H17.5188H17.5235H17.5283H17.5331H17.5379H17.5427H17.5476H17.5526H17.5575H17.5625H17.5675H17.5726H17.5777H17.5828H17.5879H17.5931H17.5983H17.6035H17.6088H17.6141H17.6194H17.6248H17.6302H17.6356H17.641H17.6465H17.652H17.6575H17.6631H17.6687H17.6743H17.6799H17.6856H17.6913H17.697H17.7027H17.7085H17.7143H17.7201H17.726H17.7319H17.7378H17.7437H17.7496H17.7556H17.7616H17.7676H17.7737H17.7798H17.7859H17.792H17.7981H17.8043H17.8105H17.8167H17.8229H17.8292H17.8355H17.8418H17.8481H17.8544H17.8608H17.8672H17.8736H17.88H17.8864H17.8929H17.8994H17.9059H17.9124H17.9189H17.9255H17.9321H17.9387H17.9453H17.9519H17.9586H17.9652H17.9719H17.9786H17.9854H17.9921H17.9988H18.0056H18.0124H18.0192H18.026H18.0329H18.0397H18.0466H18.0535H18.0603H18.0673H18.0742H18.0811H18.0881H18.095H18.102H18.109H18.116H18.123H18.13H18.1371H18.1441H18.1512H18.1583H18.1654H18.1725H18.1796H18.1867H18.1938H18.201H18.2081H18.2153H18.2225H18.2296H18.2368H18.244H18.2512H18.2584H18.2657H18.2729H18.2802H18.2874H18.2947H18.3019H18.3092H18.3165H18.3238H18.3311H18.3384H18.3457H18.353H18.3603H18.3676H18.3749H18.3823H18.3896H18.397H18.4043H18.4117H18.419H18.4264H18.4337H18.4411H18.4485H18.4558H18.4632H18.4706H18.478H18.4854H18.4927H18.5001H18.5075H18.5149H18.5223H18.5297H18.5371H18.5445H18.5519H18.5593H18.5667H18.574H18.5814H18.5888H18.5962H18.6036H18.611H18.6184H18.6258H18.6331H18.6405H18.6479H18.6553H18.6626H18.67H18.6774H18.6847H18.6921H18.6994H18.7068H18.7141H18.7215H18.7288H18.7361H18.7435H18.7508H18.7581H18.7654H18.7727H18.78H18.7873H18.7946H18.8018H18.8091H18.8164H18.8236H18.8309H18.8381H18.8453H18.8526H18.8598H18.867H18.8742H18.8813H18.8885H18.8957H18.9028H18.91H18.9171H18.9242H18.9313H18.9385H18.9455H18.9526H18.9597H18.9667H18.9738H18.9808H18.9878H18.9948H19.0018H19.0088H19.0158H19.0227H19.0297H19.0366H19.0435H19.0504H19.0573H19.0642H19.071H19.0779H19.0847H19.0915H19.0983H19.105H19.1118H19.1185H19.1253H19.132H19.1387H19.1453H19.152H19.1586H19.1653H19.1719H19.1784H19.185H19.1916H19.1981H19.2046H19.2111H19.2175H19.224H19.2304H19.2368H19.2432H19.2496H19.2559H19.2623H19.2686H19.2748H19.2811H19.2873H19.2936H19.2997H19.3059H19.3121H19.3182H19.3243H19.3304H19.3364H19.3425H19.3485H19.3544H19.3604H19.3663H19.3722H19.3781H19.384H19.3898H19.3956H19.4014H19.4072H19.4129H19.4186H19.4242H19.4299H19.4355H19.4411H19.4467H19.4522H19.4577H19.4632H19.4686H19.4741H19.4795H19.4848H19.4902H19.4955H19.5007H19.506H19.5112H19.5164H19.5215H19.5266H19.5317H19.5368H19.5418H19.5468H19.5518H19.5567H19.5616H19.5665H19.5713H19.5761H19.5809H19.5856H19.5903H19.595H19.5996H19.6042H19.6088H19.6133H19.6178H19.6223H19.6267H19.6311H19.6354H19.6398H19.644H19.6483H19.6525H19.6567H19.6608H19.6649H19.6689H19.673H19.6769H19.6809H19.6848H19.6887H19.6925H19.6963H19.7H19.7037H19.7074H19.7111H19.7146H19.7182H19.7217H19.7252H19.7286H19.732H19.7353H19.7386H19.7419H19.7451H19.7483H19.7515H19.7545H19.7576H19.7606H19.7636H19.7665H19.7694H19.7722H19.775H19.7778H19.7805H19.7831H19.7857H19.7883H19.7908H19.7933H19.7957H19.7981H19.8004H19.8027H19.805H19.8072H19.8093H19.8114H19.8135H19.8155H19.8175H19.8194H19.8213H19.8231H19.8248H19.8266H19.8282H19.8299H19.8314H19.8329H19.8344H19.8358H19.8372H19.8385H19.8398H19.841H19.8422H19.8433H19.8444H19.8454H19.8463H19.8472C20.1829 20.6089 20.4768 20.4461 20.6768 20.2461C20.8767 20.0461 21.0396 19.7523 21.0396 19.4166V19.4154V19.4142V19.4129V19.4115V19.4102V19.4087V19.4073V19.4057V19.4041V19.4025V19.4008V19.3991V19.3973V19.3955V19.3937V19.3917V19.3898V19.3878V19.3857V19.3836V19.3815V19.3793V19.377V19.3748V19.3724V19.3701V19.3676V19.3652V19.3627V19.3601V19.3575V19.3549V19.3522V19.3494V19.3467V19.3439V19.341V19.3381V19.3351V19.3322V19.3291V19.3261V19.3229V19.3198V19.3166V19.3134V19.3101V19.3068V19.3034V19.3V19.2966V19.2931V19.2896V19.286V19.2824V19.2788V19.2751V19.2714V19.2676V19.2638V19.26V19.2561V19.2522V19.2483V19.2443V19.2403V19.2362V19.2322V19.228V19.2239V19.2197V19.2154V19.2112V19.2069V19.2025V19.1981V19.1937V19.1893V19.1848V19.1803V19.1757V19.1712V19.1666V19.1619V19.1572V19.1525V19.1478V19.143V19.1382V19.1333V19.1285V19.1236V19.1186V19.1136V19.1086V19.1036V19.0986V19.0935V19.0883V19.0832V19.078V19.0728V19.0676V19.0623V19.057V19.0517V19.0463V19.0409V19.0355V19.0301V19.0246V19.0191V19.0136V19.008V19.0024V18.9968V18.9912V18.9855V18.9799V18.9742V18.9684V18.9627V18.9569V18.9511V18.9452V18.9394V18.9335V18.9276V18.9216V18.9157V18.9097V18.9037V18.8977V18.8916V18.8855V18.8794V18.8733V18.8672V18.861V18.8548V18.8486V18.8424V18.8362V18.8299V18.8236V18.8173V18.8109V18.8046V18.7982V18.7918V18.7854V18.779V18.7725V18.7661V18.7596V18.7531V18.7466V18.74V18.7335V18.7269V18.7203V18.7137V18.707V18.7004V18.6937V18.6871V18.6804V18.6737V18.6669V18.6602V18.6534V18.6467V18.6399V18.6331V18.6262V18.6194V18.6126V18.6057V18.5988V18.5919V18.585V18.5781V18.5712V18.5643V18.5573V18.5503V18.5434V18.5364V18.5294V18.5224V18.5153V18.5083V18.5013V18.4942V18.4871V18.4801V18.473V18.4659V18.4588V18.4517V18.4445V18.4374V18.4302V18.4231V18.4159V18.4088V18.4016V18.3944V18.3872V18.38V18.3728V18.3656V18.3584V18.3511V18.3439V18.3367V18.3294V18.3222V18.3149V18.3077V18.3004V18.2931V18.2858V18.2786V18.2713V18.264V18.2567V18.2494V18.2421V18.2348V18.2275V18.2202V18.2129V18.2055V18.1982V18.1909V18.1836V18.1763V18.1689V18.1616V18.1543V18.147V18.1396V18.1323V18.125V18.1176V18.1103V18.103V18.0957V18.0883V18.081V18.0737V18.0664V18.059V18.0517V18.0444V18.0371V18.0298V18.0225V18.0152V18.0079V18.0006V17.9933V17.986V17.9787V17.9714V17.9641V17.9568V17.9496V17.9423V17.935V17.9278V17.9205V17.9133V17.906V17.8988V17.8916V17.8844V17.8771V17.8699V17.8627V17.8555V17.8484V17.8412V17.834V17.8268V17.8197V17.8126V17.8054V17.7983V17.7912V17.7841V17.777V17.7699V17.7628V17.7557V17.7487V17.7416V17.7346V17.7276V17.7206V17.7136V17.7066V17.6996V17.6926V17.6857V17.6787V17.6718V17.6649V17.658V17.6511V17.6442V17.6374V17.6305V17.6237V17.6169V17.6101V17.6033V17.5965V17.5898V17.583V17.5763V17.5696V17.5629V17.5562V17.5495V17.5429V17.5363V17.5297V17.5231V17.5165V17.5099V17.5034V17.4969V17.4904V17.4839V17.4774V17.4709V17.4645V17.4581V17.4517V17.4453V17.439V17.4327V17.4264V17.4201V17.4138V17.4075V17.4013V17.3951V17.3889V17.3828V17.3766V17.3705V17.3644V17.3583V17.3523V17.3463V17.3402V17.3343V17.3283V17.3224V17.3165V17.3106V17.3047V17.2989V17.2931V17.2873V17.2815V17.2758V17.2701V17.2644V17.2587V17.2531V17.2475V17.2419V17.2364V17.2308V17.2254V17.2199V17.2144V17.209V17.2036V17.1983V17.193V17.1877V17.1824V17.1771V17.1719V17.1668V17.1616V17.1565V17.1514V17.1463V17.1413V17.1363V17.1313V17.1264V17.1215V17.1166V17.1118V17.1069V17.1022V17.0974V17.0927V17.088V17.0834V17.0788V17.0742V17.0696V17.0651V17.0606V17.0562V17.0518V17.0474V17.0431V17.0388V17.0345V17.0303V17.0261V17.0219V17.0178V17.0137V17.0096V17.0056V17.0016V16.9977V16.9938V16.9899V16.9861V16.9823V16.9786V16.9748V16.9712V16.9675V16.9639V16.9604V16.9569V16.9534V16.9499V16.9465V16.9432V16.9399V16.9366V16.9333V16.9301V16.927V16.9239V16.9208V16.9178V16.9148V16.9118V16.9089V16.9061V16.9033V16.9005V16.8978V16.8951V16.8924V16.8898V16.8873V16.8848V16.8823V16.8799V16.8775V16.8752V16.8729V16.8706V16.8685V16.8663V16.8642V16.8622V16.8601V16.8582V16.8563V16.8544V16.8526V16.8508V16.8491V16.8474V16.8458V16.8442V16.8427V16.8412V16.8398V16.8384V16.837V16.8358V16.8345V16.8333V16.8322V16.8311V16.8301V16.8291V16.8282V16.8273V16.8265V16.8257V16.825V16.8243V16.8237V16.8231V16.8226V16.8222V16.8218V16.8214V16.8211V16.8209V16.8207V16.8205V16.8204ZM7.39842 5.91658C7.39842 6.46405 6.95134 6.91265 6.39391 6.91265C5.83648 6.91265 5.3894 6.46405 5.3894 5.91658C5.3894 5.36911 5.83648 4.92051 6.39391 4.92051C6.95134 4.92051 7.39842 5.36911 7.39842 5.91658Z" stroke="currentColor" stroke-linecap="round" stroke-linejoin="round"/></svg>

<svg xmlns="http://www.w3.org/2000/svg" fill="none" viewBox="0 0 24 24" width="1em" height="1em"><path stroke="currentColor" stroke-linecap="round" stroke-linejoin="round" d="M21.04 16.82a.5.5 0 0 0-.155-.361l-.345.361.345-.361h0l-.003-.003-.01-.01-.039-.037-.148-.142a629.781 629.781 0 0 1-2.36-2.265 427.547 427.547 0 0 1-4.224-4.113c-.337-.334-.334-.745-.312-1.2a3.691 3.691 0 0 0 .003-.128l.003-.073c.152-1.89-.329-3.61-1.364-4.866-1.041-1.263-2.608-2.013-4.533-2.013-3.633 0-5.858 3.02-5.858 5.696 0 1.274.269 2.911 1.252 4.222 1.004 1.339 2.694 2.259 5.359 2.18.126 0 .255-.005.375-.01l.006-.001c.126-.006.258-.02.375-.032l.058-.006a4.09 4.09 0 0 1 .373-.025c.224-.001.375.037.496.127l.015.013.042.035a40.775 40.775 0 0 1 .697.66c.27.26.583.562.892.852l.342-.364-.342.364a.78.78 0 0 0 .586.196c.176-.01.36-.063.541-.134a.982.982 0 0 1 .243-.07 1.36 1.36 0 0 1-.065.198 1.957 1.957 0 0 0-.155.628c-.012.227.036.52.274.746l.003.003c.098.093.3.286.626.334.321.049.658-.056 1.024-.267l.009-.005c-.01.028-.022.06-.038.097a2.584 2.584 0 0 1-.102.204l-.012.023a3.104 3.104 0 0 0-.11.218.982.982 0 0 0-.09.362.755.755 0 0 0 .142.469c.063.089.24.278.418.467.196.207.441.462.68.709l.65.666.211.215.059.06.016.015.003.004.002.001h0l.356-.35-.356.35a.5.5 0 0 0 .356.15h2.596c.336 0 .63-.163.83-.363.2-.2.363-.494.363-.83v0-.005 0-2.578 0-.002 0-.002 0-.002 0-.002 0-.001 0-.001 0-.001 0-.001 0-.001 0ZM7.398 5.917a1 1 0 0 1-1.004.996 1 1 0 0 1-1.005-.996 1 1 0 0 1 1.005-.996 1 1 0 0 1 1.004.996Z"/></svg>
